gama.ui.shared/icons_svg/dark/agents/agent.kill.svg

<svg height="25" viewBox="-778.997 -3602.725 25 25" width="25" xmlns="http://www.w3.org/2000/svg"><g fill="none"><circle cx="-766.497" cy="-3590.225" fill="#666" r="12"/><circle cx="-766.497" cy="-3590.225" r="12" stroke="#fff" stroke-linecap="round" stroke-linejoin="round" stroke-width=".25"/><path d="m-763.1079-3585.488-2.0893-2.0893c-.1541-.1542-.1541-.4041 0-.5583.1542-.1541.4041-.1541.5583 0l2.0893 2.0893 2.0893-2.0893c.1541-.1541.4041-.1541.5582 0 .1542.1542.1542.4041 0 .5583l-2.0893 2.0893 2.0893 2.0893c.1542.1541.1542.404 0 .5582-.1541.1542-.4041.1542-.5582 0l-2.0893-2.0895-2.0893 2.0895c-.1542.1542-.4041.1542-.5583 0-.1541-.1542-.1541-.4041 0-.5582zm-2.1713-4.6855c-.4923.2205-1.0381.3435-1.6125.3435-.5733 0-1.118-.1223-1.6095-.342l-3.22265 1.4647c-.42275.1923-.69415.6137-.69415 1.0781v.5622c0 .654.5302 1.1842 1.1842 1.1842h3.9473c.21805 0 .3948.1768.3948.3948s-.17675.3947-.3948.3947h-3.9473c-1.0901 0-1.9737-.8837-1.9737-1.9737v-.5622c0-.7738.4524-1.4765 1.157-1.7968l2.7289-1.2404c-.9237-.7226-1.5175-1.8476-1.5175-3.1111 0-2.1801 1.7673-3.9475 3.9474-3.9475 2.18005 0 3.94735 1.7674 3.94735 3.9475 0 1.2575-.58805 2.3778-1.50425 3.1005l2.0542.8787c.20045.0857.29345.3177.2077.5183-.0857.2003-.3177.2933-.5181.2075zm-1.6125-.4461c1.744 0 3.1579-1.4139 3.1579-3.1579 0-1.7441-1.4139-3.1579-3.1579-3.1579-1.7441 0-3.1579 1.4138-3.1579 3.1579 0 1.744 1.4138 3.1579 3.1579 3.1579z" fill="#ff797c"/></g></svg>

<?xml version="1.0" encoding="UTF-8" standalone="no"?>
<!DOCTYPE svg PUBLIC "-//W3C//DTD SVG 1.1//EN" "http://www.w3.org/Graphics/SVG/1.1/DTD/svg11.dtd">
<svg xmlns:dc="http://purl.org/dc/elements/1.1/" version="1.1" xmlns="http://www.w3.org/2000/svg" xmlns:xl="http://www.w3.org/1999/xlink" viewBox="-778.997 -3602.725 24.999996 25" width="24.999996" height="25">
  <defs/>
  <g id="SOURCES" stroke="none" stroke-dasharray="none" fill-opacity="1" stroke-opacity="1" fill="none">
    <title>SOURCES</title>
    <g id="SOURCES_Dark">
      <title>Dark</title>
      <g id="Graphic_11566">
        <circle cx="-766.497" cy="-3590.225" r="12.000018268838" fill="#666"/>
        <circle cx="-766.497" cy="-3590.225" r="12.000018268838" stroke="white" stroke-linecap="round" stroke-linejoin="round" stroke-width=".25"/>
      </g>
      <g id="Graphic_11563">
        <path d="M -763.1079 -3585.488 L -765.1972 -3587.5773 C -765.3513 -3587.7315 -765.3513 -3587.9814 -765.1972 -3588.1356 C -765.043 -3588.2897 -764.7931 -3588.2897 -764.6389 -3588.1356 L -762.5496 -3586.0463 L -760.4603 -3588.1356 C -760.3062 -3588.2897 -760.0562 -3588.2897 -759.9021 -3588.1356 C -759.7479 -3587.9814 -759.7479 -3587.7315 -759.9021 -3587.5773 L -761.9914 -3585.488 L -759.9021 -3583.3987 C -759.7479 -3583.2446 -759.7479 -3582.9947 -759.9021 -3582.8405 C -760.0562 -3582.6863 -760.3062 -3582.6863 -760.4603 -3582.8405 L -762.5496 -3584.93 L -764.6389 -3582.8405 C -764.7931 -3582.6863 -765.043 -3582.6863 -765.1972 -3582.8405 C -765.3513 -3582.9947 -765.3513 -3583.2446 -765.1972 -3583.3987 Z M -765.2792 -3590.1735 C -765.7715 -3589.953 -766.3173 -3589.83 -766.8917 -3589.83 C -767.465 -3589.83 -768.0097 -3589.9523 -768.5012 -3590.172 L -771.72385 -3588.7073 C -772.1466 -3588.515 -772.418 -3588.0936 -772.418 -3587.6292 L -772.418 -3587.067 C -772.418 -3586.413 -771.8878 -3585.8828 -771.2338 -3585.8828 L -767.2865 -3585.8828 C -767.06845 -3585.8828 -766.8917 -3585.706 -766.8917 -3585.488 C -766.8917 -3585.27 -767.06845 -3585.0933 -767.2865 -3585.0933 L -771.2338 -3585.0933 C -772.3239 -3585.0933 -773.2075 -3585.977 -773.2075 -3587.067 L -773.2075 -3587.6292 C -773.2075 -3588.403 -772.7551 -3589.1057 -772.0505 -3589.426 L -769.3216 -3590.6664 C -770.2453 -3591.389 -770.8391 -3592.514 -770.8391 -3593.7775 C -770.8391 -3595.9576 -769.0718 -3597.725 -766.8917 -3597.725 C -764.71165 -3597.725 -762.94435 -3595.9576 -762.94435 -3593.7775 C -762.94435 -3592.52 -763.5324 -3591.3997 -764.4486 -3590.677 L -762.3944 -3589.7983 C -762.19395 -3589.7126 -762.10095 -3589.4806 -762.1867 -3589.28 C -762.2724 -3589.0797 -762.5044 -3588.9867 -762.7048 -3589.0725 L -765.2792 -3590.1735 Z M -766.8917 -3590.6196 C -765.1477 -3590.6196 -763.7338 -3592.0335 -763.7338 -3593.7775 C -763.7338 -3595.5216 -765.1477 -3596.9354 -766.8917 -3596.9354 C -768.6358 -3596.9354 -770.0496 -3595.5216 -770.0496 -3593.7775 C -770.0496 -3592.0335 -768.6358 -3590.6196 -766.8917 -3590.6196 Z" fill="#ff797c"/>
      </g>
    </g>
  </g>
</svg>
